X: 2278
T: Back From The School
R: jig
M: 6/8
K: Gmajor
~G3 B2d|cde ded|~G3 GAB|AGE DEF|
~G3 B2d|cde ded|~G3 GAB|AGF G3:|
~g2d edB|~g2d edB|GBd ~g2d|edB def|
g3 bag|age ded|~G3 GAB|AGE D2f|
g2d edB|g2d edB|GBd g2d|edB def|
g3 B2d|cde ded|~G3 GAB|AGF G3|

